Suru++-Ubuntu/places/scalable/user-desktop.svg

<svg width="256" height="256" version="1.1" viewBox="0 0 67.73 67.73" xmlns="http://www.w3.org/2000/svg" xmlns:xlink="http://www.w3.org/1999/xlink">
 <defs>
  <linearGradient id="linearGradient928" x1="39.998" x2="263.998" y1="91.998" y2="91.998" gradientUnits="userSpaceOnUse">
   <stop style="stop-color:#000000;stop-opacity:.25877193" offset="0"/>
   <stop style="stop-color:#000000" offset=".491"/>
   <stop style="stop-color:#000000;stop-opacity:0" offset="1"/>
  </linearGradient>
  <clipPath id="clipPath942-3">
   <path d="m39.998047 108v113.08203c0 35.29672 3.623657 38.91992 38.992187 38.91992h146.01368c35.36853 0 38.99414-3.6232 38.99414-38.91992v-113.08203z" style="fill:url(#linearGradient946)"/>
  </clipPath>
  <linearGradient id="linearGradient4226" x1="529.655" x2="-35.31" y1="401.584" y2="119.093" gradientTransform="matrix(.11988932 0 0 .11988589 4.1867431 230.30448)" gradientUnits="userSpaceOnUse">
   <stop style="stop-color:#a7a7f1" offset="0"/>
   <stop style="stop-color:#8c59d9" offset="1"/>
  </linearGradient>
  <filter id="filter965" x="-.02" y="-.03" width="1.045" height="1.052" style="color-interpolation-filters:sRGB">
   <feGaussianBlur stdDeviation="4.16"/>
  </filter>
  <filter id="filter4346" x="-.01" y="-.01" width="1.026" height="1.022" style="color-interpolation-filters:sRGB">
   <feGaussianBlur stdDeviation="2.12"/>
  </filter>
 </defs>
 <g transform="translate(0,-229.26666)">
  <g transform="translate(0,1.5441334)">
   <path transform="matrix(0 -.13229167 .13229167 0 -5.6028401 301.99519)" d="m189.84323 74c-70.59344 0-78.18921 7.250835-77.84323 77.98706v292.02588c-0.34598 70.73623 7.24979 77.98706 77.84323 77.98706h228.31354c70.59344 0 75.90613-7.27652 77.84323-77.98706v-292.02588c0-70.737067-7.24979-77.98706-77.84323-77.98706z" style="filter:url(#filter4346);opacity:.1"/>
   <path transform="matrix(0 .13229167 .13229167 0 -5.6028401 221.56328)" d="m189.84323 74c-70.59344 0-78.18921 7.250835-77.84323 77.98706v292.02588c-0.34598 70.73623 7.24979 77.98706 77.84323 77.98706h228.31354c70.59344 0 77.84323-7.24999 77.84323-77.98706v-292.02588c0-70.737067-7.24979-77.98706-77.84323-77.98706z" style="filter:url(#filter965);opacity:.2"/>
   <path d="m4.1869408 246.69798v29.91962c0 9.33893 0.9587592 10.29757 10.316682 10.29757h38.632785c9.357924 0 10.3172-0.95864 10.3172-10.29757v-29.91962z" style="fill:url(#linearGradient4226)"/>
   <path d="m4.1869408 276.08844v0.52916c0 9.33893 0.9587584 10.29757 10.316682 10.29757h38.632785c9.357924 0 10.3172-0.95864 10.3172-10.29757v-0.52916c0 9.33892-0.959276 10.29756-10.3172 10.29756h-38.632785c-9.3579238 0-10.316682-0.95864-10.316682-10.29756z" style="opacity:.2"/>
   <path d="m4.1867431 264.69036h59.266666v11.92692c0 9.33893-0.96217 10.05513-10.316943 10.29808h-38.632782c-9.3579239 0-10.316941-0.95915-10.316941-10.29808z" style="fill:#ffffff;opacity:.05"/>
   <path d="m33.820274 246.69798v40.21719h19.316134c9.354773-0.24296 10.3172-0.95916 10.3172-10.29808v-29.91911z" style="fill:#ffffff;opacity:.05"/>
   <path d="m14.503623 236.11517c-9.3578145-0.0458-10.316682 0.95915-10.316682 10.29808v0.28473h59.266667v-0.28473c0-9.33893-0.959387-10.34385-10.3172-10.29808h-19.316134z" style="fill:#3b3b3b"/>
   <path d="m14.503623 236.11517c-9.3578145-0.0458-10.316682 0.95915-10.316682 10.29808v0.52916c0-9.33892 0.9588677-10.34385 10.316682-10.29808h38.632785c9.357813-0.0458 10.3172 0.95916 10.3172 10.29808v-0.52916c0-9.33893-0.959387-10.34385-10.3172-10.29808h-19.316134z" style="fill:#ffffff;opacity:.2"/>
   <path transform="matrix(.26458333 0 0 .26458333 -6.3958761 218.12298)" d="m78.990234 70.001953c-35.36812-0.17299-38.992187 3.625145-38.992187 38.921877v1.07617h224v-1.07617c0-35.296732-3.62603-39.094867-38.99414-38.921877h-73.00586z" clip-path="url(#clipPath942-3)" style="fill:url(#linearGradient928);filter:url(#filter932);opacity:.5"/>
  </g>
 </g>
</svg>

<svg xmlns="http://www.w3.org/2000/svg" xmlns:xlink="http://www.w3.org/1999/xlink" width="256" height="256" version="1.1" viewBox="0 0 67.73 67.73">
 <defs>
  <linearGradient id="linearGradient928" x1="39.998" x2="263.998" y1="91.998" y2="91.998" gradientUnits="userSpaceOnUse" xlink:href="#linearGradient926"/>
  <linearGradient id="linearGradient926">
   <stop style="stop-color:#000000;stop-opacity:0.25877193" offset="0"/>
   <stop offset=".491" style="stop-color:#000000"/>
   <stop style="stop-color:#000000;stop-opacity:0" offset="1"/>
  </linearGradient>
  <clipPath id="clipPath942-3" clipPathUnits="userSpaceOnUse">
   <path d="m 39.998047,108 v 113.08203 c 0,35.29672 3.623657,38.91992 38.992187,38.91992 h 73.007816 73.00586 c 35.36853,0 38.99414,-3.6232 38.99414,-38.91992 V 108 Z" style="fill:url(#linearGradient946)"/>
  </clipPath>
  <linearGradient id="linearGradient4226" x1="529.655" x2="-35.31" y1="401.584" y2="119.093" gradientTransform="matrix(0.11988932,0,0,0.11988589,4.1867431,230.30448)" gradientUnits="userSpaceOnUse" xlink:href="#linearGradient4338-3"/>
  <linearGradient id="linearGradient4338-3">
   <stop offset="0" style="stop-color:#a7a7f1"/>
   <stop offset="1" style="stop-color:#8c59d9"/>
  </linearGradient>
  <filter style="color-interpolation-filters:sRGB" id="filter965" width="1.045" height="1.052" x="-.02" y="-.03">
   <feGaussianBlur stdDeviation="4.16"/>
  </filter>
  <filter style="color-interpolation-filters:sRGB" id="filter4346" width="1.026" height="1.022" x="-.01" y="-.01">
   <feGaussianBlur stdDeviation="2.12"/>
  </filter>
 </defs>
 <g transform="translate(0,-229.26666)">
  <g transform="translate(0,1.5441334)">
   <path style="opacity:0.1;filter:url(#filter4346)" d="M 189.84323,74 C 119.24979,74 111.65402,81.250835 112,151.98706 V 298 444.01294 C 111.65402,514.74917 119.24979,522 189.84323,522 H 418.15677 C 488.75021,522 494.0629,514.72348 496,444.01294 V 298 151.98706 C 496,81.249993 488.75021,74 418.15677,74 Z" transform="matrix(0,-0.13229167,0.13229167,0,-5.6028401,301.99519)"/>
   <path d="M 189.84323,74 C 119.24979,74 111.65402,81.250835 112,151.98706 V 298 444.01294 C 111.65402,514.74917 119.24979,522 189.84323,522 H 418.15677 C 488.75021,522 496,514.75001 496,444.01294 V 298 151.98706 C 496,81.249993 488.75021,74 418.15677,74 Z" transform="matrix(0,0.13229167,0.13229167,0,-5.6028401,221.56328)" style="opacity:0.2;filter:url(#filter965)"/>
   <path style="fill:url(#linearGradient4226)" d="m 4.1869408,246.69798 v 29.91962 c 0,9.33893 0.9587592,10.29757 10.3166822,10.29757 h 19.316651 19.316134 c 9.357924,0 10.3172,-0.95864 10.3172,-10.29757 v -29.91962 z"/>
   <path style="opacity:0.2" d="m 4.1869408,276.08844 v 0.52916 c 0,9.33893 0.9587584,10.29757 10.3166822,10.29757 h 19.316651 19.316134 c 9.357924,0 10.3172,-0.95864 10.3172,-10.29757 v -0.52916 c 0,9.33892 -0.959276,10.29756 -10.3172,10.29756 H 33.820274 14.503623 c -9.3579238,0 -10.3166822,-0.95864 -10.3166822,-10.29756 z"/>
   <path style="opacity:0.05;fill:#ffffff" d="M 4.1867431,264.69036 H 63.453409 v 11.92692 c 0,9.33893 -0.96217,10.05513 -10.316943,10.29808 H 33.820076 14.503684 c -9.3579239,0 -10.3169409,-0.95915 -10.3169409,-10.29808 z"/>
   <path style="opacity:0.05;fill:#ffffff" d="m 33.820274,246.69798 v 40.21719 h 19.316134 c 9.354773,-0.24296 10.3172,-0.95916 10.3172,-10.29808 v -29.91911 z"/>
   <path style="fill:#3b3b3b" d="m 14.503623,236.11517 c -9.3578145,-0.0458 -10.3166822,0.95915 -10.3166822,10.29808 v 0.28473 H 63.453608 v -0.28473 c 0,-9.33893 -0.959387,-10.34385 -10.3172,-10.29808 H 33.820274 Z"/>
   <path style="opacity:0.2;fill:#ffffff" d="m 14.503623,236.11517 c -9.3578145,-0.0458 -10.3166822,0.95915 -10.3166822,10.29808 v 0.52916 c 0,-9.33892 0.9588677,-10.34385 10.3166822,-10.29808 h 19.316651 19.316134 c 9.357813,-0.0458 10.3172,0.95916 10.3172,10.29808 v -0.52916 c 0,-9.33893 -0.959387,-10.34385 -10.3172,-10.29808 H 33.820274 Z"/>
   <path d="M 78.990234,70.001953 C 43.622114,69.828963 39.998047,73.627098 39.998047,108.92383 V 110 H 263.99805 v -1.07617 c 0,-35.296732 -3.62603,-39.094867 -38.99414,-38.921877 h -73.00586 z" clip-path="url(#clipPath942-3)" transform="matrix(0.26458333,0,0,0.26458333,-6.3958761,218.12298)" style="opacity:0.5;fill:url(#linearGradient928);filter:url(#filter932)"/>
  </g>
 </g>
</svg>
